packages/dnb-ui-lib/assets/icons/print.svg

<svg width="17" height="16" viewBox="0 0 17 16" fill="none" xmlns="http://www.w3.org/2000/svg">
<path fill-rule="evenodd" clip-rule="evenodd" d="M4.40909 1.7197C4.40909 1.59836 4.50745 1.5 4.62879 1.5H11.4167C11.538 1.5 11.6364 1.59836 11.6364 1.7197V3.87879H4.40909V1.7197ZM2.90909 3.87879V1.7197C2.90909 0.769935 3.67903 0 4.62879 0H11.4167C12.3664 0 13.1364 0.769935 13.1364 1.7197V3.87879H14.3258C15.2755 3.87879 16.0455 4.64872 16.0455 5.59848V10.447C16.0455 11.3967 15.2755 12.1667 14.3258 12.1667H12.9864V15.2955C12.9864 15.6268 12.7177 15.8955 12.3864 15.8955H3.65909C3.32772 15.8955 3.05909 15.6268 3.05909 15.2955V12.1667H1.7197C0.769934 12.1667 0 11.3967 0 10.447V5.59848C0 4.64872 0.769935 3.87879 1.7197 3.87879H2.90909ZM3.65909 5.37879H1.7197C1.59836 5.37879 1.5 5.47715 1.5 5.59848V10.447C1.5 10.5683 1.59836 10.6667 1.7197 10.6667H3.05909V8.50758C3.05909 8.1762 3.32772 7.90758 3.65909 7.90758H12.3864C12.7177 7.90758 12.9864 8.1762 12.9864 8.50758V10.6667H14.3258C14.4471 10.6667 14.5455 10.5683 14.5455 10.447V5.59848C14.5455 5.47715 14.4471 5.37879 14.3258 5.37879H12.3864H3.65909ZM3.17424 6.06818C2.8981 6.06818 2.67424 6.29204 2.67424 6.56818C2.67424 6.84432 2.8981 7.06818 3.17424 7.06818H4.14394C4.42008 7.06818 4.64394 6.84432 4.64394 6.56818C4.64394 6.29204 4.42008 6.06818 4.14394 6.06818H3.17424ZM4.25909 9.10758V14.6955H11.7864V9.10758H4.25909ZM5.09848 10.9325C5.09848 10.6564 5.32234 10.4325 5.59848 10.4325H10.447C10.7231 10.4325 10.947 10.6564 10.947 10.9325C10.947 11.2087 10.7231 11.4325 10.447 11.4325H5.59848C5.32234 11.4325 5.09848 11.2087 5.09848 10.9325ZM5.59848 12.3719C5.32234 12.3719 5.09848 12.5958 5.09848 12.8719C5.09848 13.1481 5.32234 13.3719 5.59848 13.3719H8.99242C9.26857 13.3719 9.49242 13.1481 9.49242 12.8719C9.49242 12.5958 9.26857 12.3719 8.99242 12.3719H5.59848Z" fill="black"/>
</svg>

<svg width="16" height="16" viewBox="0 0 17 16" fill="none" xmlns="http://www.w3.org/2000/svg"><path fill-rule="evenodd" clip-rule="evenodd" d="M4.41 1.72a.22.22 0 01.219-.22h6.788a.22.22 0 01.22.22v2.159H4.408v-2.16zm-1.5 2.159v-2.16C2.91.77 3.678 0 4.628 0h6.788c.95 0 1.72.77 1.72 1.72v2.159h1.189c.95 0 1.72.77 1.72 1.72v4.848c0 .95-.77 1.72-1.72 1.72h-1.34v3.129a.6.6 0 01-.6.6H3.66a.6.6 0 01-.6-.6v-3.13H1.72c-.95 0-1.719-.77-1.719-1.719V5.598c0-.95.77-1.72 1.72-1.72h1.19zm.75 1.5H1.72a.22.22 0 00-.22.22v4.848c0 .121.098.22.22.22h1.34v-2.16a.6.6 0 01.6-.6h8.726a.6.6 0 01.6.6v2.16h1.34a.22.22 0 00.22-.22V5.598a.22.22 0 00-.22-.22H3.659zm-.486.69a.5.5 0 000 1h.97a.5.5 0 000-1h-.97zM4.26 9.107v5.587h7.527V9.108H4.26zm.84 1.824a.5.5 0 01.5-.5h4.848a.5.5 0 010 1H5.598a.5.5 0 01-.5-.5zm.5 1.44a.5.5 0 000 1h3.393a.5.5 0 100-1H5.598z" fill="#000"/></svg>
